ACP3/Modules/ACP3/System/Resources/Assets/svgs/solid/landmark.svg

<svg xmlns="http://www.w3.org/2000/svg" viewBox="0 0 512 512"><!--! Font Awesome Free 6.1.2 by @fontawesome - https://fontawesome.com License - https://fontawesome.com/license/free (Icons: CC BY 4.0, Fonts: SIL OFL 1.1, Code: MIT License) Copyright 2022 Fonticons, Inc. --><path d="M240.1 4.216C249.1-1.405 262-1.405 271.9 4.216L443.6 102.4L447.1 104V104.9L495.9 132.2C508.5 139.4 514.6 154.2 510.9 168.2C507.2 182.2 494.5 192 479.1 192H31.1C17.49 192 4.795 182.2 1.071 168.2C-2.653 154.2 3.524 139.4 16.12 132.2L63.1 104.9V104L68.37 102.4L240.1 4.216zM64 224H128V416H168V224H232V416H280V224H344V416H384V224H448V420.3C448.6 420.6 449.2 420.1 449.8 421.4L497.8 453.4C509.5 461.2 514.7 475.8 510.6 489.3C506.5 502.8 494.1 512 480 512H32C17.9 512 5.46 502.8 1.373 489.3C-2.713 475.8 2.517 461.2 14.25 453.4L62.25 421.4C62.82 420.1 63.41 420.6 64 420.3V224z"/></svg>

<svg xmlns="http://www.w3.org/2000/svg" viewBox="0 0 512 512"><!--! Font Awesome Free 6.2.0 by @fontawesome - https://fontawesome.com License - https://fontawesome.com/license/free (Icons: CC BY 4.0, Fonts: SIL OFL 1.1, Code: MIT License) Copyright 2022 Fonticons, Inc. --><path d="M240.1 4.2c9.8-5.6 21.9-5.6 31.8 0l171.8 98.1L448 104l0 .9 47.9 27.4c12.6 7.2 18.8 22 15.1 36s-16.4 23.8-30.9 23.8H32c-14.5 0-27.2-9.8-30.9-23.8s2.5-28.8 15.1-36L64 104.9V104l4.4-1.6L240.1 4.2zM64 224h64V416h40V224h64V416h48V224h64V416h40V224h64V420.3c.6 .3 1.2 .7 1.8 1.1l48 32c11.7 7.8 17 22.4 12.9 35.9S494.1 512 480 512H32c-14.1 0-26.5-9.2-30.6-22.7s1.1-28.1 12.9-35.9l48-32c.6-.4 1.2-.7 1.8-1.1V224z"/></svg>
